X:1
T:Title
%%score 1 { 2 | 3 }
L:1/8
Q:1/4=135
M:3/4
K:Ab
V:1 treble nm="Grand Piano, Soprano"
V:2 bass nm="Choir Pad, Metropolitan, CM"
V:3 bass 
V:1
 E2 [Ec]4 | [Ec]2 [Ed]4 | [Ec]2 [Ec]4 | [DB]2 [CA]4 | [=DA]2 [DA]4 | [=DA]2 [Dc]4 | [=DB]2 [EB]4 | %7
w: By~John~Turner~Layton,~Sr.,~1898 *|||||||
 E2 [Ec]4 | [Ec]2 [Ed]4 | [Ed]2 [Ee]4 | [_Ge]2 [Ff]4 | [FB]2 [Ec]4 | [Ec]2 [Dc]4 | [DB]2 [CA]4- | %14
w: |||||||
 [CA]6 |] %15
w: |
V:2
 E,2 A,4 | A,2 G,4 | A,2 A,4 | G,2 A,4 | F,2 F,4 | F,2 F,4 | A,2 G,4 | G,2 A,4 | A,2 A,4 | %9
 A,2 A,4 | A,2 A,4 | A,2 A,4 | A,2 G,4 | G,2 A,4- | A,6 |] %15
V:3
 z2 A,,4 | A,,2 B,,4 | A,,2 E,4 | =E,2 F,4 | B,,2 B,,4 | B,,2 B,,4 | B,,2 E,4 | E,2 A,,4 | %8
 A,,2 B,,4 | B,,2 C,4 | C,2 D,4 | =D,2 E,4 | E,2 [E,,E,]4 | [E,,E,]2 A,,4- | A,,6 |] %15

